dist/img/svg/factory-icon.svg

<svg width="60" height="60" viewBox="0 0 60 60" fill="none" xmlns="http://www.w3.org/2000/svg">
<g clip-path="url(#clip0)">
<path d="M58.9995 35.0001H55.9325L53.9996 6.93225C53.9634 6.40674 53.5265 5.99951 52.9995 6.00025H46.9995C46.4725 5.99951 46.0356 6.40674 45.9994 6.93225L44.0665 35.0001H42V29.0001C42 28.4482 41.5521 28 41.0002 28C40.7725 27.9996 40.552 28.0773 40.3748 28.2194L31.9999 34.9192V29.0001C31.9999 28.4482 31.5524 28 31.0001 28C30.7727 27.9996 30.5522 28.0773 30.375 28.2194L22.0001 34.9192V29.0001C22.0001 28.4482 21.5526 28 21.0004 28C20.7729 27.9996 20.5521 28.0773 20.3752 28.2194L12.0004 34.9192V29.0001C12 28.4482 11.5521 28.0004 11.0002 28.0004C10.8182 28.0004 10.6406 28.0498 10.485 28.1432L0.484863 34.1432C0.184204 34.3241 0 34.6489 0 35.0001V59.0001C0 59.5524 0.447876 59.9999 1.00012 59.9999H58.9995C59.5518 59.9999 59.9996 59.5524 59.9996 59.0001V36.0002C59.9996 35.4476 59.5518 35.0001 58.9995 35.0001ZM47.9333 8.00012H52.0657L53.9282 35.0001H46.0708L47.9333 8.00012ZM33.9994 58V46H39.9994V58H33.9994ZM57.9998 58H42V44.9999C42 44.448 41.5518 44.0001 40.9995 44.0001H32.9996C32.4474 44.0001 31.9995 44.448 31.9995 44.9999V58H1.99988V35.5663L9.99976 30.7664V37C9.99976 37.5526 10.4473 38.0001 10.9995 38.0009C11.2266 38.0009 11.4474 37.9232 11.625 37.7811L19.9999 31.0813V37C19.9999 37.5526 20.447 38.0001 20.9996 38.0009C21.2267 38.0009 21.4471 37.9232 21.6248 37.7815L29.9996 31.0817V37.0004C29.9996 37.5526 30.4468 38.0009 30.9994 38.0009C31.2264 38.0009 31.4469 37.9232 31.6245 37.7815L39.9994 31.0817V36.0002C39.9994 36.5529 40.4473 37.0004 40.9995 37.0004H57.999V58H57.9998Z" fill="#2F3235"/>
<path d="M33.9929 2.00051C34.3566 2.19533 34.6851 2.44948 34.9652 2.75234C35.5259 3.43605 36.3242 3.88136 37.1998 4.00038C38.1223 3.88283 38.9646 3.41811 39.556 2.70033C39.8091 2.43483 40.0922 2.20009 40.4002 2.00051C40.606 2.00966 41.145 2.5143 41.4351 2.7853C41.9745 3.4529 42.7494 3.88759 43.5997 4.00038C44.5819 3.87587 45.4795 3.38332 46.1119 2.62233C46.3569 2.39235 46.7279 2.04335 46.7997 2.00051C47.3366 2.00051 47.4596 2.17848 47.7899 2.65456C48.2239 3.4745 49.072 3.99123 50 4.00038C50.5519 4.00038 50.9998 3.55251 50.9998 3.00063C50.9998 2.44802 50.5519 2.00051 50 2.00051C49.7997 2.00051 49.7609 1.98659 49.436 1.51747C48.905 0.563494 47.891 -0.0198805 46.7997 0.0002611C45.9907 0.112688 45.2546 0.528703 44.742 1.16445C44.4098 1.47756 43.8532 2.00051 43.6419 2.00527C43.332 1.81777 43.0493 1.58925 42.7996 1.32668C42.1982 0.594255 41.3399 0.120012 40.3998 0.0002611C39.533 0.118547 38.7434 0.560198 38.1886 1.23622C37.9081 1.53725 37.584 1.79469 37.2277 2.00051C36.8944 1.80934 36.5912 1.57057 36.3279 1.29042C35.7434 0.580705 34.9114 0.120012 33.9995 0.0002611C33.4476 -0.00156995 32.9979 0.444475 32.9961 0.997087C32.9943 1.54897 33.4407 1.99867 33.9929 2.00051Z" fill="#2F3235"/>
<path d="M11.0002 46H6.99976C6.44751 46 6 46.4479 6 46.9998V52.9998C6 53.5524 6.44751 53.9999 6.99976 53.9999H11.0002C11.5521 53.9999 12 53.5524 12 52.9998V46.9998C12 46.4479 11.5521 46 11.0002 46ZM9.99976 52H7.99988V48.0002H9.99976V52Z" fill="#2F3235"/>
<path d="M19.0002 46H15.0001C14.4475 46 14 46.4479 14 46.9998V52.9998C14 53.5524 14.4475 53.9999 15.0001 53.9999H19.0002C19.5521 53.9999 20 53.5524 20 52.9998V46.9998C20 46.4479 19.5521 46 19.0002 46ZM17.9998 52H15.9999V48.0002H17.9998V52Z" fill="#2F3235"/>
<path d="M27.0002 46H23.0001C22.4475 46 22 46.4479 22 46.9998V52.9998C22 53.5524 22.4475 53.9999 23.0001 53.9999H27.0002C27.5521 53.9999 28 53.5524 28 52.9998V46.9998C28 46.4479 27.5521 46 27.0002 46ZM25.9998 52H23.9999V48.0002H25.9998V52Z" fill="#2F3235"/>
</g>
<defs>
<clipPath id="clip0">
<rect width="60" height="60" fill="white"/>
</clipPath>
</defs>
</svg>

<svg width="60" height="60" viewBox="0 0 60 60" fill="none" xmlns="http://www.w3.org/2000/svg"><g clip-path="url(#clip0)" fill="#2F3235"><path d="M59 35h-3.068L54 6.932A1 1 0 0053 6h-6a1 1 0 00-1 .932L44.065 35H42v-6a1 1 0 00-1.625-.78L32 34.92V29a1 1 0 00-1.625-.78L22 34.92V29a1 1 0 00-1.625-.78L12 34.92V29a1 1 0 00-1.515-.857l-10 6A1 1 0 000 35v24a1 1 0 001 1h58a1 1 0 001-1V36a1 1 0 00-1-1zM47.932 8h4.133l1.862 27H46.07l1.862-27zM34 58V46h6v12h-6zm24 0H42V45a1 1 0 00-1-1h-8a1 1 0 00-1 1v13H2V35.566l8-4.8V37a1 1 0 001.625.781l8.375-6.7V37a1 1 0 001.625.782l8.375-6.7V37a1 1 0 001.625.782l8.374-6.7V36a1 1 0 001 1h17v21zM33.993 2c.364.195.692.45.972.752A3.499 3.499 0 0037.2 4a3.65 3.65 0 002.356-1.3c.253-.265.536-.5.844-.7.206.01.745.514 1.035.785A3.349 3.349 0 0043.6 4a3.904 3.904 0 002.512-1.378c.245-.23.616-.579.688-.621.537 0 .66.177.99.654A2.529 2.529 0 0050 4a1 1 0 000-2c-.2 0-.24-.013-.564-.483A2.955 2.955 0 0046.8 0a3.21 3.21 0 00-2.058 1.164c-.332.314-.889.837-1.1.841a4.07 4.07 0 01-.842-.678A3.711 3.711 0 0040.4 0a3.467 3.467 0 00-2.211 1.236c-.28.301-.605.559-.961.765a3.89 3.89 0 01-.9-.71A3.627 3.627 0 0033.999 0a1 1 0 00-.006 2z"/><path d="M11 46H7a1 1 0 00-1 1v6a1 1 0 001 1h4a1 1 0 001-1v-6a1 1 0 00-1-1zm-1 6H8v-4h2v4zm9-6h-4a1 1 0 00-1 1v6a1 1 0 001 1h4a1 1 0 001-1v-6a1 1 0 00-1-1zm-1 6h-2v-4h2v4zm9-6h-4a1 1 0 00-1 1v6a1 1 0 001 1h4a1 1 0 001-1v-6a1 1 0 00-1-1zm-1 6h-2v-4h2v4z"/></g><defs><clipPath id="clip0"><path fill="#fff" d="M0 0h60v60H0z"/></clipPath></defs></svg>
